Sources/FrostedUI/Resources/Icons.xcassets/globe12.imageset/globe-12.svg

<svg width="12" height="12" viewBox="0 0 12 12" fill="none" xmlns="http://www.w3.org/2000/svg" data-fui-icon="true">
  <path
    d="M6 0C9.31371 0 12 2.68629 12 6C12 9.31371 9.31371 12 6 12C2.68629 12 0 9.31371 0 6C0 2.68629 2.68629 0 6 0ZM5.22559 8.5C5.29589 8.86163 5.37835 9.18973 5.47363 9.47559C5.61739 9.9068 5.77289 10.2014 5.9082 10.373C5.94637 10.4215 5.97739 10.4524 6 10.4727C6.02261 10.4524 6.05363 10.4215 6.0918 10.373C6.22711 10.2014 6.38261 9.9068 6.52637 9.47559C6.62165 9.18973 6.70411 8.86163 6.77441 8.5H5.22559ZM2.25879 8.5C2.71417 9.18012 3.34981 9.72867 4.09766 10.0781C4.08243 10.0352 4.0653 9.99278 4.05078 9.94922C3.90771 9.51993 3.7911 9.03112 3.70117 8.5H2.25879ZM8.29883 8.5C8.2089 9.03112 8.09229 9.51993 7.94922 9.94922C7.93466 9.99289 7.91663 10.0351 7.90137 10.0781C8.64956 9.72869 9.28567 9.18036 9.74121 8.5H8.29883ZM8.46777 5C8.48771 5.32587 8.5 5.66004 8.5 6C8.5 6.33996 8.48771 6.67413 8.46777 7H10.3867C10.4598 6.67827 10.5 6.34383 10.5 6C10.5 5.65617 10.4598 5.32173 10.3867 5H8.46777ZM5.0332 5C5.0115 5.32125 5 5.65565 5 6C5 6.34435 5.0115 6.67875 5.0332 7H6.9668C6.9885 6.67875 7 6.34435 7 6C7 5.65565 6.9885 5.32125 6.9668 5H5.0332ZM1.61328 5C1.54025 5.32173 1.5 5.65617 1.5 6C1.5 6.34383 1.54025 6.67827 1.61328 7H3.53223C3.51229 6.67413 3.5 6.33996 3.5 6C3.5 5.66004 3.51229 5.32587 3.53223 5H1.61328ZM4.09766 1.9209C3.34965 2.27034 2.71425 2.81977 2.25879 3.5H3.70117C3.7911 2.96888 3.90771 2.48007 4.05078 2.05078C4.0654 2.00692 4.08232 1.96408 4.09766 1.9209ZM5.9082 1.62695C5.77289 1.79865 5.61739 2.0932 5.47363 2.52441C5.37835 2.81027 5.29589 3.13837 5.22559 3.5H6.77441C6.70411 3.13837 6.62165 2.81027 6.52637 2.52441C6.38261 2.0932 6.22711 1.79865 6.0918 1.62695C6.05336 1.57818 6.02265 1.54659 6 1.52637C5.97735 1.54659 5.94664 1.57818 5.9082 1.62695ZM7.94922 2.05078C8.09229 2.48007 8.2089 2.96888 8.29883 3.5H9.74121C9.28559 2.81952 8.64972 2.27032 7.90137 1.9209C7.91674 1.96418 7.93457 2.00682 7.94922 2.05078Z"
    fill="currentColor"
  />
</svg>

<svg xmlns="http://www.w3.org/2000/svg" width="12" height="12" fill="none" data-fui-icon="true" viewBox="0 0 12 12"><path fill="currentColor" d="M6 0a6 6 0 1 1 0 12A6 6 0 0 1 6 0m-.774 8.5c.07.362.152.69.248.976.143.43.299.725.434.897q.058.072.092.1a1 1 0 0 0 .092-.1c.135-.172.29-.466.434-.897.096-.286.178-.614.248-.976zm-2.967 0a4.5 4.5 0 0 0 1.839 1.578q-.025-.064-.047-.129A10 10 0 0 1 3.7 8.5zm6.04 0a10 10 0 0 1-.35 1.45q-.023.064-.048.128A4.5 4.5 0 0 0 9.741 8.5zM8.468 5q.031.49.032 1-.001.51-.032 1h1.919a4.5 4.5 0 0 0 0-2zM5.033 5a15 15 0 0 0 0 2h1.934a15 15 0 0 0 0-2zm-3.42 0a4.5 4.5 0 0 0 0 2h1.92Q3.5 6.51 3.5 6q.001-.51.032-1zm2.485-3.08a4.5 4.5 0 0 0-1.84 1.58h1.443c.09-.531.207-1.02.35-1.45q.022-.064.047-.13m1.81-.293c-.135.172-.29.466-.434.897a8 8 0 0 0-.248.976h1.548a8 8 0 0 0-.248-.976c-.143-.43-.299-.725-.434-.897a1 1 0 0 0-.092-.1 1 1 0 0 0-.092.1m2.041.424c.143.43.26.918.35 1.449H9.74a4.5 4.5 0 0 0-1.84-1.58q.026.066.048.13"/></svg>
